svgs/light/person-pinball.svg

<svg xmlns="http://www.w3.org/2000/svg" viewBox="0 0 640 512"><!-- Font Awesome Pro 6.0.0-alpha2 by @fontawesome - https://fontawesome.com License - https://fontawesome.com/license (Commercial License) --><path d="M88 112C118.875 112 144 86.875 144 56S118.875 0 88 0S32 25.125 32 56S57.125 112 88 112ZM88 32C101.25 32 112 42.75 112 56S101.25 80 88 80S64 69.25 64 56S74.75 32 88 32ZM16 368C7.156 368 0 375.156 0 384V496C0 504.844 7.156 512 16 512S32 504.844 32 496V384C32 375.156 24.844 368 16 368ZM288 336C296.836 336 304 328.836 304 320C304 311.162 296.836 304 288 304S272 311.162 272 320C272 328.836 279.164 336 288 336ZM608 0H512C494.326 0 480 14.326 480 32V58.807C480 62.246 480.555 65.664 481.643 68.926L528 208L192 256H179.781C173.656 256 168.188 252.594 165.469 247.156L124 164.156C112.844 141.844 90.406 128 65.438 128C29.344 128 0 157.344 0 193.438V285.281C0 302.563 9.375 318.594 24.469 327.125L119.812 380.75C124.875 383.594 128 388.938 128 394.719V496C128 504.844 135.156 512 144 512S160 504.844 160 496V394.719C160 377.437 150.625 361.406 135.531 352.875L40.188 299.25C35.125 296.406 32 291.062 32 285.281V193.438C32 175 47 160 65.438 160C78.188 160 89.656 167.062 95.375 178.5L136.844 261.469C145.031 277.812 161.469 288 179.781 288H192V496C192 504.836 199.164 512 208 512S224 504.836 224 496V416H608V496C608 504.836 615.164 512 624 512S640 504.836 640 496V32C640 14.326 625.674 0 608 0ZM608 384H224V283.754L608 228.896V384ZM608 196.572L560.197 203.4L512 58.807V32H608V196.572Z"/></svg>

<svg xmlns="http://www.w3.org/2000/svg" viewBox="0 0 640 512"><!--! Font Awesome Pro 6.3.0 by @fontawesome - https://fontawesome.com License - https://fontawesome.com/license (Commercial License) Copyright 2023 Fonticons, Inc. --><path d="M88 112c30.88 0 56-25.12 56-56S118.9 0 88 0S32 25.12 32 56S57.13 112 88 112zM88 32C101.3 32 112 42.75 112 56S101.3 80 88 80S64 69.25 64 56S74.75 32 88 32zM16 368C7.156 368 0 375.2 0 384v112C0 504.8 7.156 512 16 512S32 504.8 32 496V384C32 375.2 24.84 368 16 368zM288 336c8.836 0 16-7.164 16-16c0-8.838-7.164-16-16-16S272 311.2 272 320C272 328.8 279.2 336 288 336zM608 .0048h-96c-17.67 0-32 14.33-32 31.1v26.8c0 3.439 .5547 6.857 1.643 10.12L528 208L192 256H179.8C173.7 256 168.2 252.6 165.5 247.2L124 164.2C112.8 141.8 90.41 128 65.44 128C29.34 128 0 157.3 0 193.4v91.84c0 17.28 9.375 33.31 24.47 41.84l95.34 53.62C124.9 383.6 128 388.9 128 394.7V496c0 8.844 7.156 15.1 16 15.1S160 504.8 160 496v-101.3c0-17.28-9.375-33.31-24.47-41.84L40.19 299.3C35.13 296.4 32 291.1 32 285.3V193.4C32 175 47 160 65.44 160c12.75 0 24.22 7.062 29.94 18.5l41.47 82.97C145 277.8 161.5 288 179.8 288L192 287.1v208C192 504.8 199.2 512 208 512S224 504.8 224 496V416h384v80c0 8.836 7.164 16 16 16s16-7.164 16-15.1V32C640 14.33 625.7 .0048 608 .0048zM608 384H224V283.8l384-54.86V384zM608 196.6l-47.8 6.828L512 58.81V32h96V196.6z"/></svg>
